**kern	**kern
*staff1	*staff1
*solos[solo1,solo2,solo3]
=1-	=1-
*clefG2	*clefG2
*k[]	*k[]
*F:	*F:
*M4/4	*M4/4
*>head1
{8f/L	1F:dom	!!Head
8e/	.
8f/	.
8c/J	.
4r	.
8a/L	.
8a-/J	.
=2	=2
8a/L	2G:min
8c/J	.
8r	.
[8e/	.
8e/L]	2A-:o7
8g/	.
8f/	.
8e/J	.
=3	=3
8g/L	1F:dom
8f/	.
8a/	.
8b-/J	.
8a/L	.
8f/	.
8g/	.
8e-/J}	.
=4	=4
8r	2C:min
{8dd\	.
4r	.
8r	2F:dom
[8dd-\L	.
8dd-\]	.
8b-\J	.
=5	=5
4.b\	1B-:dom
8ff\	.
8r	.
8b\	.
[4b-\	.
=6	=6
2b-\]}	1B-:dom
{8a-/L	.
8f/	.
8g/	.
8f/J	.
=7	=7
4cc\	1F:dom
8r	.
8a/	.
4b-\	.
8r	.
8g/	.
=8	=8
4cc\	2A:min
[4cc\	.
8cc\L]	2D:dom
8a\	.
8b-\	.
8cc\J	.
=9	=9
8a/L	1G:min
8g/	.
8f/	.
8e/J	.
4f/	.
8r	.
8cc\	.
=10	=10
4b-\	1C:dom
8r	.
[8ff\	.
8ff\L]	.
8cc\	.
8ee\	.
8ff\J	.
=11	=11
4r	2F:dom
8r	.
[8cc\	.
4.cc\]	2D:dom
8a/	.
=12	=12
8b-/L	2G:min
8a/	.
8f/	.
8d/J	.
8a/L	2C:dom
[8a/J	.
4a/]}	.
=13	=13
8b-/L	2G:dom
8a/	.
8f/	.
8d/J	.
8a/L	2C:dom
[8g/J	.
4g/]	.
=14:|!	=14:|!	!!Chorus 1
*>solo1
4f/	1F:dom
4r	.
8r	.
{16d-/LL	.
16c/J	.
8B/	.
8c/J	.
=15||	=15||
8e/L	1F:dom
8g/	.
8f/	.
8g/J	.
8a/L	.
8b-/	.
8cc/	.
8a/J	.
=16	=16
8b-\L	1C:min
16cc\L	.
16b-\J	.
8a\	.
8f\J	.
8g/L	.
[8e-/J	.
4e-/]}	.
=17	=17
2r	2C:min
4r	2B:dom
{16f/LL	.
16g/	.
16b-/	.
16dd/JJ	.
=18	=18
8ff\	1B-:dom
8r	.
8dd/L	.
8g/J	.
4r	.
16f/LL	.
16g/	.
16b-/	.
16dd/JJ	.
=19	=19
4ff\	1B-:dom
8dd-/L	.
8g/J}	.
2r	.
=20	=20
8r	1F:dom
{8e/	.
12f/L	.
12a/	.
12cc/J	.
8ee\L	.
8ee-\	.
8dd\	.
8dd-\J	.
=21	=21
8cc\L	2F:maj
8b-\J	.
24a/LL	.
24b-/	.
24a/JJ	.
8g/	.
8g-/L	2D:dom
8e-/	.
8c/	.
8c#/J	.
=22	=22
8f/L	1G:min
8A/J	.
12B-/L	.
12d/	.
12f/J	.
8a/L	.
8f/	.
8d/	.
8B-/J	.
=23	=23
4g/	1C:dom
8cc/L	.
[8a-/J	.
4a-/]	.
8cc/L	.
[8an/J	.
=24	=24
4a/]	1F:dom
8c/L	.
[8d/J	.
4d/]}	.
4r	.
=25	=25
2r	2G:min
4r	2C:dom
*>solo2
{8ff\L	.
8ee\J	.
=26	=26
8ff\	1F:dom	!!Chorus 2
8r	.
8cc\L	.
8b\J	.
4cc\	.
8a/L	.
8f/J	.
=27||	=27||
8b-\L	1B-:dom
8cc\	.
8dd\	.
8cc\J	.
8r	.
8B/L	.
8c/	.
8b-/J	.
=28	=28
8a-/L	1F:dom
8an/	.
8cc/	.
8a/J	.
8b-\L	.
16cc\L	.
16b-\J	.
8a\	.
8g\J	.
=29	=29
8f/L	2F:dom
8e/	.
8e-/	.
8g/J	.
8d/L	2F:dom
8c/	.
8f/	.
8e-/J	.
=30	=30
8d/L	1B-:dom
8F/	.
8A-/	.
8B/J	.
4e/	.
8B/L	.
[8g/J	.
=31	=31
4g/]	1B-:dom
8r	.
[8f/	.
4f/]	.
8e/L	.
8c/J	.
=32	=32
8d/L	1F:dom
[8A/J	.
2A/]}	.
4r	.
=33	=33
2r	2A:min
4r	2D:dom
{16g/LL	.
16a/	.
16b-/	.
16dd/JJ	.
=34	=34
16ff\LL	1G:min
16dd\	.
16ee-\	.
16een\JJ	.
16cc\LL	.
16cc#\	.
16dd\	.
16ccn\JJ	.
16b-/LL	.
16a/	.
16g/	.
16f/JJ	.
16e/LL	.
16g/	.
16b-/	.
16dd/JJ	.
=35	=35
16cc/LL	1C:dom
16a/JJ	.
24b-\LL	.
24cc\	.
24b-\JJ	.
16a/LL	.
16f/	.
16d/	.
16B-/JJ	.
16g/LL	.
16a-/	.
16e/	.
16c/JJ	.
16c#/LL	.
16d/	.
16B-/	.
16G/JJ	.
=36	=36
4c/}	1F:dom
4r	.
8r	.
{8B-/	.
16A/LL	.
16c/	.
16e/	.
16g/JJ	.
=37	=37
4f/}	2G:min
8r	.
{8c/	.
[4e/	.
16e/LL]	2C:dom
16g/	.
16b-/	.
16dd/JJ	.
=38	=38
4cc\	1F:dom
8r	.
*>solo3
8b-\	.
8a/	.
4f/	.
[8bn\	.
=39||	=39||
8b\L]	1B-:dom	!!Chorus 3
8b-\J	.
24a-/LL	.
24b-/	.
24a-/JJ	.
8f/	.
8g/	.
4f/	.
[8e-/	.
=40	=40
8e-/L]	1F:dom
[8c/J	.
4c/]}	.
2r	.
=41	=41
4r	2C:min
8r	.
{[8gg\	.
4gg\]	2F:dom
8ff\L	.
8ee-\J	.
=42	=42
8dd\L	1B-:dom
8cc\	.
8b-\	.
16cc\L	.
16b-\JJ	.
8a-/L	.
8f/J	.
4d/	.
=43	=43
4r	1B-:dom
8r	.
[8g/	.
8g/L]	.
8f/	.
8d-/	.
8B/J	.
=44	=44
4c/}	1F:dom
4r	.
4r	.
8r	.
{16ee\LL	.
16ee-\JJ	.
=45	=45
8dd\L	2A:min
8dd-\	.
8cc\	.
8b-\J	.
24a/LL	2D:dom
24b-/	.
24a/JJ	.
8g/L	.
8g-/	.
8gn/J	.
=46	=46
8a/L	1G:min
8g/J}	.
4r	.
8r	.
{8a\L	.
8b-\	.
8cc\J	.
=47	=47
12dd-\L	1C:dom
12ee-\	.
12dd-\J	.
8cc\L	.
8b\J	.
8b-\L	.
8a\	.
8cc\	.
8b-\J	.
=48	=48
8a/L	1F:dom
8f/	.
8d-/	.
8B/J	.
4c/}	.
4r	.
=49	=49
4r	2G:min
8r	.
{[8a/	.
4a/_	.
8a/L]	2C:dom
16cc/L	.
16a/JJ	.
=50	=50
8g/L	1F:dom
8f/J	.
2.g/}	.
==	==
*-	*-
